src/assets/images/ic_status_delivered.svg

<?xml version="1.0" encoding="UTF-8"?>
<svg width="14px" height="14px" viewBox="0 0 14 14" version="1.1" xmlns="http://www.w3.org/2000/svg" xmlns:xlink="http://www.w3.org/1999/xlink">
    <g stroke="none" stroke-width="1" fill="none" fill-rule="evenodd">
        <path d="M4.06633295,6.97914639 C4.26716242,6.78080281 4.59496525,6.77866485 4.79850107,6.97437111 L6.68088929,8.78434819 L12.1153972,3.48847581 C12.3175844,3.29144648 12.6453945,3.29144648 12.8475817,3.48847581 C13.0497689,3.68550515 13.0497689,4.00495281 12.8475817,4.20198214 L7.04942355,9.85222798 C6.84819256,10.0483255 6.52227062,10.0493884 6.31969737,9.85460763 L4.07123323,7.69263674 C3.86769741,7.49693047 3.86550348,7.17748996 4.06633295,6.97914639 Z M4.50628991,9.14630614 L4.1315112,9.51152417 C3.93028021,9.70762171 3.60435827,9.70868455 3.40178501,9.51390382 L1.15409879,7.35202026 C0.950562972,7.156314 0.948369042,6.83687349 1.14919851,6.63852991 C1.35002798,6.44018634 1.67783082,6.43804837 1.88136664,6.63375464 L3.76297694,8.44364437 L4.50628991,9.14630614 Z M5.58498418,6.66811694 L9.19748483,3.147772 C9.399672,2.95074267 9.72748218,2.95074267 9.92966935,3.147772 C10.1318565,3.34480133 10.1318565,3.664249 9.92966935,3.86127833 L6.32268203,7.3762506 L5.58498418,6.66811694 Z" fill="#859479" fill-rule="nonzero"></path>
    </g>
</svg>

<svg width="14" height="14" xmlns="http://www.w3.org/2000/svg"><path d="M4.066 6.98c.201-.2.529-.201.733-.006l1.882 1.81 5.434-5.296a.527.527 0 01.733 0 .495.495 0 010 .714l-5.799 5.65a.527.527 0 01-.73.003L4.072 7.693a.495.495 0 01-.005-.714zm.44 2.166l-.374.366a.527.527 0 01-.73.002L1.154 7.352a.495.495 0 01-.005-.713c.201-.199.529-.201.732-.005l1.882 1.81.743.702zm1.079-2.478l3.612-3.52a.527.527 0 01.733 0 .495.495 0 010 .713L6.323 7.376l-.738-.708z" fill="#859479" fill-rule="nonzero"/></svg>
